X:1
T:St. James, CM
T:St. James, CM
T:Raph Courteville, 1696
T:Public Domain Courtesy of the Cyber Hymnal™
C:Raph Courteville, 1696
Z:Public Domain
Z:Courtesy of the Cyber Hymnal™
%%score ( 1 2 ) ( 3 4 )
L:1/8
Q:1/4=110
M:4/4
K:A
V:1 treble 
V:2 treble 
V:3 bass 
V:4 bass 
V:1
 [CE]2 | [EA]2 [EB]2 [Ec]2 [EA]2 | [FB]2 [Ed]2 [Ec]2 [Ec]2 | [^DF]2 [EG]2 [EA]2 [DF]2 | E6 [EB]2 | %5
 [Ec]2 [EA]2 [Dd]2 [Ec]2 | [DF]2 [FB]2 [EG]2 E2 | (GA) [Ac]2 [Ad]2 [GB]2 | [CA]6 |] %9
V:2
 x2 | x8 | x8 | x8 | E6 x2 | x8 | x6 E2 | E2 x6 | x6 |] %9
V:3
 [A,,A,]2 | [C,A,]2 [E,G,]2 A,2 [C,A,]2 | [D,A,]2 [E,G,]2 [A,,A,]2 [A,C]2 | %3
 z [G,B,]2 [F,A,]2 [B,,B,]2 x | [E,G,]6 [E,G,]2 | [A,,A,]2 [C,A,]2 (F,G,) [A,,A,]2 | %6
 [D,A,]2 [B,,D]2 [E,B,]2 G,2 | A,2 [A,,E]2 [B,,D]2 [E,D]2 | [A,,A,]6 |] %9
V:4
 x2 | x4 A,2 x2 | x8 | (B,2 A,) x5 | x8 | x4 B,,2 x2 | x6 (E,D,) | (D,C,) x6 | x6 |] %9

